src/icons/icons_set_04/024-loupe.svg

<svg height="50" viewBox="0 0 50 50" width="50" xmlns="http://www.w3.org/2000/svg"><path d="m29 40c-10.4934102 0-19-8.5065898-19-19s8.5065898-19 19-19 19 8.5065898 19 19-8.5065898 19-19 19zm0-8c6.0751322 0 11-4.9248678 11-11s-4.9248678-11-11-11-11 4.9248678-11 11 4.9248678 11 11 11z"/><path d="m15.1715729 29.1715729c1.5620971-1.5620972 4.0947571-1.5620972 5.6568542 0 1.5620972 1.5620971 1.5620972 4.0947571 0 5.6568542l-10.545361 10.545361c-1.56209716 1.5620972-4.09475707 1.5620972-5.65685424 0-1.56209717-1.5620971-1.56209717-4.094757 0-5.6568542z"/></svg>

<?xml version="1.0" encoding="UTF-8"?>
<svg width="50px" height="50px" viewBox="0 0 50 50" version="1.1" xmlns="http://www.w3.org/2000/svg" xmlns:xlink="http://www.w3.org/1999/xlink">
    <!-- Generator: Sketch 52.4 (67378) - http://www.bohemiancoding.com/sketch -->
    <title>024-loupe</title>
    <desc>Created with Sketch.</desc>
    <g id="024-loupe" stroke="none" stroke-width="1" fill="none" fill-rule="evenodd">
        <path d="M29,40 C18.5065898,40 10,31.4934102 10,21 C10,10.5065898 18.5065898,2 29,2 C39.4934102,2 48,10.5065898 48,21 C48,31.4934102 39.4934102,40 29,40 Z M29,32 C35.0751322,32 40,27.0751322 40,21 C40,14.9248678 35.0751322,10 29,10 C22.9248678,10 18,14.9248678 18,21 C18,27.0751322 22.9248678,32 29,32 Z" id="Oval" fill="#000000" fill-rule="nonzero"></path>
        <path d="M15.1715729,29.1715729 C16.73367,27.6094757 19.26633,27.6094757 20.8284271,29.1715729 C22.3905243,30.73367 22.3905243,33.26633 20.8284271,34.8284271 L10.2830661,45.3737881 C8.72096894,46.9358853 6.18830903,46.9358853 4.62621186,45.3737881 C3.06411469,43.811691 3.06411469,41.2790311 4.62621186,39.7169339 L15.1715729,29.1715729 Z" id="Line-4" fill="#000000" fill-rule="nonzero"></path>
    </g>
</svg>
